findly-builder/apps/searchassist/src/assets/icons/docker/clock.svg

<svg width="13" height="13" viewBox="0 0 13 13" fill="none" xmlns="http://www.w3.org/2000/svg">
<path d="M6.5 0C2.91406 0 0 2.91406 0 6.5C0 10.0859 2.91406 13 6.5 13C10.0859 13 13 10.0859 13 6.5C13 6.22386 12.7761 6 12.5 6C12.2239 6 12 6.22386 12 6.5C12 9.54297 9.54297 12 6.5 12C3.45703 12 1 9.54297 1 6.5C1 3.45703 3.45703 1 6.5 1C8.14062 1 9.59766 1.72266 10.6055 2.85938L9.97698 3.48787C9.78799 3.67686 9.92184 4 10.1891 4H12.7C12.8657 4 13 3.86569 13 3.7V1.18911C13 0.921837 12.6769 0.787987 12.4879 0.976976L11.3125 2.15234C10.1211 0.835938 8.41016 0 6.5 0ZM6.5 2C6.22386 2 6 2.22386 6 2.5V6H4.5C4.22386 6 4 6.22386 4 6.5C4 6.77614 4.22386 7 4.5 7H6.72727C6.8779 7 7 6.8779 7 6.72727V2.5C7 2.22386 6.77614 2 6.5 2Z" fill="#5F6368"/>
</svg>

<svg width="13" height="13" fill="none" xmlns="http://www.w3.org/2000/svg"><path d="M6.5 0A6.505 6.505 0 0 0 0 6.5C0 10.086 2.914 13 6.5 13S13 10.086 13 6.5a.5.5 0 0 0-1 0C12 9.543 9.543 12 6.5 12A5.493 5.493 0 0 1 1 6.5C1 3.457 3.457 1 6.5 1c1.64 0 3.098.723 4.105 1.86l-.628.628a.3.3 0 0 0 .212.512H12.7a.3.3 0 0 0 .3-.3V1.19a.3.3 0 0 0-.512-.213l-1.175 1.175A6.475 6.475 0 0 0 6.5 0Zm0 2a.5.5 0 0 0-.5.5V6H4.5a.5.5 0 0 0 0 1h2.227C6.877 7 7 6.878 7 6.727V2.5a.5.5 0 0 0-.5-.5Z" fill="#5F6368"/></svg>
